assets/images/icons/types-of-rest/greek-column.svg

<?xml version="1.0" encoding="UTF-8"?>
<svg width="20px" height="21px" viewBox="0 0 20 21" version="1.1" xmlns="http://www.w3.org/2000/svg" xmlns:xlink="http://www.w3.org/1999/xlink">
    <!-- Generator: sketchtool 45 (43475) - http://www.bohemiancoding.com/sketch -->
    <title>E4444988-C689-4B29-8A8C-780D98156140</title>
    <desc>Created with sketchtool.</desc>
    <defs></defs>
    <g id="Page-1" stroke="none" stroke-width="1" fill="none" fill-rule="evenodd">
        <g id="главная_гайды" transform="translate(-922.000000, -703.000000)" fill-rule="nonzero" fill="#9aa7b4">
            <g id="Group-2-Copy-6" transform="translate(686.000000, 602.000000)">
                <g id="Group">
                    <g id="Group-2">
                        <g id="greek-column" transform="translate(236.000000, 101.000000)">
                            <path d="M19.4456564,3.64009022 C19.3408478,2.56825217 18.8249985,1.60132646 17.9931157,0.917555189 C17.2879263,0.337866504 16.427002,0.0216773904 15.5283756,0.00212625121 L15.5283756,0 L4.06948925,0 L4.06948925,0.000207439143 C3.13668728,-0.00129649464 2.24008344,0.317537468 1.51020882,0.917555189 C0.678274137,1.60137832 0.162476709,2.56825217 0.0576680817,3.64009022 C-0.124152327,5.50164909 1.24245675,7.16422196 3.10406747,7.34624981 C3.1995932,7.35558457 3.29485963,7.36025195 3.38955559,7.36025195 C4.05439805,7.36025195 4.69331061,7.13227633 5.2136717,6.70448496 C5.80808856,6.21586206 6.17665606,5.52498599 6.25159345,4.75912068 C6.315744,4.10205719 6.12018075,3.45930701 5.70094624,2.94931787 C5.28165988,2.43922502 4.68890253,2.12298405 4.03183904,2.05888535 C3.57298366,2.01402664 3.16448412,2.34976689 3.11967727,2.80872599 C3.07487042,3.2676851 3.41055881,3.67597719 3.86951791,3.72083591 C4.08260977,3.74168354 4.274854,3.84431406 4.41088221,4.00969491 C4.54691043,4.17517949 4.61033495,4.38365583 4.58948732,4.59664397 C4.55806029,4.91864138 4.40305139,5.20905618 4.15319094,5.41447279 C3.90333049,5.6198894 3.58848973,5.71572628 3.26649232,5.68429925 C2.32119215,5.59193698 1.62730822,4.74765966 1.71961863,3.80246321 C1.78102062,3.17459678 2.08320759,2.6081842 2.570534,2.20756736 C3.05786041,1.80695051 3.67208771,1.61999599 4.29995413,1.68144983 C6.03471583,1.85103133 7.30818472,3.40034243 7.13865508,5.1350004 L12.3645138,5.1350004 C12.1950361,3.40034243 13.468505,1.85103133 15.2032666,1.68144983 C15.8309775,1.61994413 16.4452567,1.80695051 16.9326868,2.20756736 C17.4200132,2.6081842 17.7223039,3.17454492 17.7836021,3.80246321 C17.8759126,4.74771152 17.1819768,5.59193698 16.2367285,5.68429925 C15.9147829,5.71567442 15.599994,5.6198894 15.3500298,5.41447279 C15.1000657,5.20905618 14.9451086,4.91864138 14.9137335,4.59664397 C14.8929377,4.38365583 14.9563622,4.17517949 15.0923386,4.00969491 C15.2283668,3.84431406 15.4205591,3.74168354 15.633651,3.72083591 C16.092662,3.67597719 16.4282985,3.2676851 16.3834916,2.80872599 C16.3386848,2.34976689 15.9301334,2.01402664 15.4713299,2.05888535 C14.8142664,2.12298405 14.2214572,2.43922502 13.8021708,2.94931787 C13.3829882,3.45930701 13.1874249,4.10210905 13.2516273,4.75912068 C13.3264091,5.52498599 13.6950804,6.21586206 14.2894972,6.70448496 C14.8098583,7.13222447 15.4487709,7.36025195 16.1136133,7.36025195 C16.2083093,7.36025195 16.3035757,7.35558457 16.3990496,7.34624981 C18.2608677,7.16422196 19.6274768,5.50170095 19.4456564,3.64009022 Z" id="Shape"></path>
                            <path d="M13.1754453,16.9634396 L13.1754453,5.96123051 L6.32787919,5.96123051 L6.32787919,16.9633878 C5.56491803,17.0803834 4.98056196,17.7395732 4.98056196,18.535206 C4.98056196,19.4136071 5.69259682,20.1256419 6.57094601,20.1256419 L12.9324303,20.1256419 C13.8108314,20.1256419 14.5228144,19.4136071 14.5228144,18.535206 C14.5227625,17.7395732 13.9384065,17.0803834 13.1754453,16.9634396 Z M8.83649261,8.86506735 C8.83649261,8.35964188 9.24618492,7.94974213 9.75166225,7.94974213 C10.2572433,7.94974213 10.6668837,8.35964188 10.6668837,8.86506735 L10.6668837,14.9852481 C10.6668837,15.4906736 10.2572433,15.9004696 9.75166225,15.9004696 C9.24618492,15.9004696 8.83649261,15.4906736 8.83649261,14.9852481 L8.83649261,8.86506735 Z" id="Shape"></path>
                        </g>
                    </g>
                </g>
            </g>
        </g>
    </g>
</svg>

<svg xmlns="http://www.w3.org/2000/svg" width="20" height="21" viewBox="0 0 20 21">
    <g fill="#9aa7b4" fill-rule="nonzero">
        <path d="M19.446 3.64A4.006 4.006 0 0 0 17.993.918a4 4 0 0 0-2.465-.916V0H4.07A4 4 0 0 0 1.51.918 4.006 4.006 0 0 0 .058 3.64 3.396 3.396 0 0 0 3.39 7.36c.664 0 1.303-.228 1.824-.656A2.863 2.863 0 0 0 6.252 4.76 2.456 2.456 0 0 0 5.7 2.95a2.455 2.455 0 0 0-1.67-.89.835.835 0 0 0-.161 1.662c.213.02.405.123.54.289.137.165.2.374.18.587a1.203 1.203 0 0 1-.437.817c-.25.206-.565.302-.887.27A1.725 1.725 0 0 1 1.72 3.802a2.347 2.347 0 0 1 .85-1.594A2.346 2.346 0 0 1 4.3 1.68a3.165 3.165 0 0 1 2.839 3.454h5.226a3.165 3.165 0 0 1 2.838-3.454 2.346 2.346 0 0 1 1.73.527c.487.4.79.967.85 1.594a1.725 1.725 0 0 1-1.546 1.882 1.203 1.203 0 0 1-.887-.27 1.203 1.203 0 0 1-.436-.817.797.797 0 0 1 .178-.587.797.797 0 0 1 .542-.29.835.835 0 1 0-.163-1.661c-.657.064-1.25.38-1.669.89a2.456 2.456 0 0 0-.55 1.81 2.862 2.862 0 0 0 1.037 1.945 2.86 2.86 0 0 0 2.11.642 3.396 3.396 0 0 0 3.047-3.706z"/>
        <path d="M13.175 16.963V5.961H6.328v11.002a1.59 1.59 0 0 0 .243 3.163h6.361a1.59 1.59 0 0 0 .243-3.163zM8.836 8.865a.915.915 0 1 1 1.83 0v6.12a.915.915 0 1 1-1.83 0v-6.12z"/>
    </g>
</svg>
